X:1
T:Brother James’ Air, 86.86.86
T:Brother James’ Air, 86.86.86
T:James Leith Macbeth Bain, 1915
T:Public Domain Courtesy of the Cyber Hymnal™
C:James Leith Macbeth Bain, 1915
Z:Public Domain
Z:Courtesy of the Cyber Hymnal™
%%score ( 1 2 ) ( 3 4 )
L:1/8
M:6/4
K:D
V:1 treble 
V:2 treble 
V:3 bass 
V:4 bass 
V:1
 D4 | [DF]2 [CA]2 [Dd]4 [FA]4 | [AB]2 [Gd]2 [FA]4 G4 | [DF]2 D2 [G,D]4 [A,C]4 | [A,D]8 D4 | %5
 [DF]2 [DA]2 [Fd]4 [FA]4 | [DB]2 [Fd]2 [EA]4 G4 | [DF]2 D2 [A,D]4 [A,C]4 | [A,D]8 [CE]4 | %9
 [DF]2 D2 D4 E4 | [DF]2 D2 [B,D]4 [CE]4 | [DF]2 [DA]2 d4 d4 | [Fd]8 |] %13
V:2
 D4 | x12 | x8 D2 E2 | x2 D2 x8 | x8 D4 | x12 | x8 G4 | x2 D2 x8 | x12 | x2 D2 D4 B,2 C2 | %10
 x2 D2 x8 | x4 F2 G2 A2 G2 | x8 |] %13
V:3
 [D,F,]4 | [D,A,]2 [E,G,]2 [F,A,]4 D2 C2 | [G,,B,]2 [B,,G,]2 [D,A,]4 B,4 | %3
 [D,A,]2 [D,F,]2 E,4 [A,,E,]4 | [D,F,]8 [D,F,]4 | [D,A,]2 [C,F,]2 [B,,B,]4 [F,C]4 | %6
 [G,B,]2 [G,B,]2 [A,C]4 [B,D]4 | [A,D]2 [G,B,]2 [F,A,]4 [E,G,]4 | [D,F,]8 [A,,A,]4 | %9
 [D,A,]2 [D,F,]2 [F,A,]4 [E,G,]4 | [B,,F,]2 [B,,F,]2 [B,,F,]4 [A,,A,]4 | %11
 [D,A,]2 [D,F,]2 [B,,B,]4 [G,,B,]4 | [D,A,]8 |] %13
V:4
 x4 | x8 D,4 | x8 B,,2 C,2 | x4 E,4 x4 | x12 | x12 | x12 | x12 | x12 | x12 | x12 | x12 | x8 |] %13

